!!!OTL: "Sehnsucht" 'S ISCH EBEN E MENSCH UF ERDE
!!!ARE: Europa, Mitteleuropa, Schweiz
!!!SCT: Z1219
!!!YEM: Copyright 1995, estate of Helmut Schaffrath.
**kern
*ICvox
*Ivox
*M4/4
*k[]
*a:
{4e
=1
8a
16a
16g#
8a
8b
8ccn
8a
4b
=2
8ccn
16ccn
16a
2b
8r}
{8e
=3
8a
16a
16g#
8a
8b
8ccn
8a
4b
=4
8ccn
16ccn
16a
4b
8ee
4r}
{8ee
=5
8b
16b
16a
8g#
8a
8b
16b
16ccn
8b
8ee
=6
16dd
16ccn
16b
16a
8g#
16a
16a
16b
16a
16b
16ccn
8b}
{16a
16b
=7
8ccn
16ccn
16ccn
8dd
8dd
4ee
8dd
8dd
=8
8ccn
8a
8b
16b
16ccn
4a}
==
!!!AGN: Liebes - Lied
!!!ONB: ESAC (Essen Associative Code) Database: ZUCCAL
!!!AMT: simple quadruple
!!!AIN: vox
!!!EED: Helmut Schaffrath
!!!EEV: 1.0
*-
